symbols/web/playlist_add_check_circle/materialsymbolsoutlined/playlist_add_check_circle_wght300gradN25fill1_24px.svg

<svg xmlns="http://www.w3.org/2000/svg" height="24" width="24"><path d="m14.05 17.95 4.525-4.55-.975-.975-3.525 3.55-1.425-1.425-1 1Zm-6.75-3.2h2.4V13.3H7.3Zm0-3.05h6.4v-1.4H7.3Zm0-3h6.4V7.3H7.3ZM12 21.3q-1.925 0-3.625-.738-1.7-.737-2.95-1.987-1.25-1.25-1.987-2.95Q2.7 13.925 2.7 12t.738-3.625q.737-1.7 1.987-2.95 1.25-1.25 2.95-1.988Q10.075 2.7 12 2.7t3.625.737q1.7.738 2.95 1.988 1.25 1.25 1.987 2.95.738 1.7.738 3.625t-.738 3.625q-.737 1.7-1.987 2.95-1.25 1.25-2.95 1.987-1.7.738-3.625.738Z"/></svg>

<svg xmlns="http://www.w3.org/2000/svg" height="24" width="24"><path d="M7.3 11.7H13.7V10.3H7.3ZM7.3 8.7H13.7V7.3H7.3ZM7.3 14.75H9.7V13.3H7.3ZM14.05 17.95 18.575 13.4 17.6 12.425 14.075 15.975 12.65 14.55 11.65 15.55ZM12 21.3Q10.075 21.3 8.375 20.575Q6.675 19.85 5.413 18.587Q4.15 17.325 3.425 15.625Q2.7 13.925 2.7 12Q2.7 10.075 3.425 8.375Q4.15 6.675 5.413 5.412Q6.675 4.15 8.375 3.425Q10.075 2.7 12 2.7Q13.925 2.7 15.625 3.425Q17.325 4.15 18.587 5.412Q19.85 6.675 20.575 8.363Q21.3 10.05 21.3 12Q21.3 13.925 20.575 15.625Q19.85 17.325 18.587 18.587Q17.325 19.85 15.637 20.575Q13.95 21.3 12 21.3Z"/></svg>
